X:329
T:Mr Lane's Minuet. (p)1695.PLFD.329
M:3/4
L:1/4
Q:3/4=60
S:Playford, Dancing Master,9th Ed,1695.
R:.Minuet
O:England
H:1695.
Z:Chris Partington.
K:F
d>e^c|dAf|efd|e/d/c/B/A|d>e^c|dAf|efd|e3:|
|:fcc|A/B/cc|dGG|E/F/GG|F/G/AA|B/c/dB|c/d/e^c|d3:|
